images_elementary_svg/chart2/res/barstack_52x60.svg

<svg height="52" viewBox="0 0 60 52" width="60" xmlns="http://www.w3.org/2000/svg" xmlns:xlink="http://www.w3.org/1999/xlink"><linearGradient id="a" gradientTransform="matrix(1.3832 0 0 1.4144 -11.892 21.511)" gradientUnits="userSpaceOnUse" x1="13.697" x2="13.3" y1="12.091" y2="29.436001"><stop offset="0" stop-color="#aff05f"/><stop offset="1" stop-color="#68b723"/></linearGradient><linearGradient id="b"><stop offset="0" stop-color="#fff"/><stop offset=".58055538" stop-color="#fff" stop-opacity=".23529"/><stop offset="1" stop-color="#fff" stop-opacity=".15686"/><stop offset="1" stop-color="#fff" stop-opacity=".39216"/></linearGradient><linearGradient id="c" gradientUnits="userSpaceOnUse" x1="13.608" x2="13.608" y1="2.5455" y2="21.532"><stop offset="0" stop-color="#f7b19e"/><stop offset="1" stop-color="#e2866d"/></linearGradient><linearGradient id="d" gradientUnits="userSpaceOnUse" x1="15.608" x2="15.608" y1="2.5455" y2="21.532"><stop offset="0" stop-color="#cd9ef7"/><stop offset="1" stop-color="#a56de2"/></linearGradient><linearGradient id="e" gradientUnits="userSpaceOnUse" x1="42.5" x2="42.5" y1="49.5" y2="7"><stop offset="0" stop-color="#f6f6f6"/><stop offset=".35294119" stop-color="#fcfcfc"/><stop offset="1" stop-color="#fff" stop-opacity=".915441"/></linearGradient><linearGradient id="f" gradientUnits="userSpaceOnUse" x1="44" x2="26.5" xlink:href="#d" y1="-13.5" y2="-13.5"/><linearGradient id="g" gradientUnits="userSpaceOnUse" x1="49.03516" x2="34.03516" xlink:href="#c" y1="-19.035156" y2="-19.035156"/><linearGradient id="h" gradientTransform="translate(30.464844 -43.652344)" gradientUnits="userSpaceOnUse" x1="23.535156" x2="8.535156" xlink:href="#a" y1="32.152344" y2="32.152344"/><linearGradient id="i" gradientUnits="userSpaceOnUse" x1="-15" x2="-25" xlink:href="#b" y1="40" y2="40"/><linearGradient id="j" gradientUnits="userSpaceOnUse" x1="46.53516" x2="36.53516" xlink:href="#b" y1="-16.535156" y2="-17.035156"/><linearGradient id="k" gradientUnits="userSpaceOnUse" x1="51.5" x2="41.5" xlink:href="#b" y1="-11.5" y2="-11.5"/><linearGradient id="l" gradientUnits="userSpaceOnUse" x1="44.5" x2="27" xlink:href="#d" y1="-13.5" y2="-13.5"/><linearGradient id="m" gradientUnits="userSpaceOnUse" x1="-14" x2="-24.5" xlink:href="#b" y1="40" y2="40"/><linearGradient id="n" gradientUnits="userSpaceOnUse" x1="49.535164" x2="34.535164" xlink:href="#c" y1="-19.035156" y2="-19.035156"/><linearGradient id="o" gradientUnits="userSpaceOnUse" x1="47.035164" x2="36.535164" xlink:href="#b" y1="-17.535156" y2="-17.535156"/><linearGradient id="p" gradientTransform="translate(30.464844 -43.652344)" gradientUnits="userSpaceOnUse" x1="26.53516" x2="6.53516" xlink:href="#a" y1="32.152344" y2="32.152344"/><linearGradient id="q" gradientUnits="userSpaceOnUse" x1="52.000004" x2="42.000004" xlink:href="#b" y1="-9" y2="-9"/><path d="m3 3h57v49h-57z" fill="#010101" opacity=".02"/><path d="m3 3h56.5v48.5h-56.5z" fill="#010101" opacity=".05"/><path d="m3 3h56v48h-56z" fill="#010101" opacity=".2"/><g stroke-linecap="round" stroke-linejoin="round"><path d="m.5.5h57v49h-57z" fill="url(#e)" stroke="#939393" stroke-width=".999"/><path d="m6.5 12.5v31" fill="none" stroke="#939393"/><path d="m6.5 43.5h38.5" fill="none" stroke="#939393"/><path d="m1.5 1.5h55v47h-55z" fill="none" stroke="#fff" stroke-width=".999"/><g stroke-opacity=".746324" transform="matrix(0 -1 -1 0 -1 53.5)"><path d="m41.964844-9.53516v-6.929684l-11.964844.03516v6.929684z" fill="url(#f)" stroke="#7239b3"/><path d="m-25 36.570316v4.929684h10l-.03516-4.964844z" fill="none" stroke="url(#i)" transform="translate(56 -52)"/></g><g stroke-opacity=".745098" transform="matrix(0 -1 -1 0 5.964844 58.53516)"><path d="m47.111336-27.035156-12.076176-.000004-.000004 17.5 12.000004.000004z" fill="url(#g)" stroke="#b35039"/><path d="m36.03516-26.035156v15.5h10v-15.5z" fill="none" stroke="url(#j)"/></g><g stroke-opacity=".745098" transform="matrix(0 -1 -1 0 23.5 63.5)"><path d="m52-9.5-11.964844-.035156v-5.296875l11.964844-.167969z" fill="url(#h)" stroke="#7bb339"/><path d="m41.070312-14.070312-.070312 3.570312 9.964844.03516.07032-3.570312z" fill="none" stroke="url(#k)"/></g><g stroke-opacity=".746324" transform="matrix(0 -1 -1 0 -1 71.5)"><path d="m41.964844-9.53516.03516-4.96484-11.964844.03516-.03516 4.96484z" fill="url(#l)" stroke="#7239b3"/><path d="m-24.96484 38.53516-.03516 2.96484h10v-3z" fill="none" stroke="url(#m)" transform="translate(56 -52)"/></g><g stroke-opacity=".745098" transform="matrix(0 -1 -1 0 .964844 76.535164)"><path d="m47.111336-23.535156-12.076176-.000004v11l12.000004.000004z" fill="url(#n)" stroke="#b35039"/><path d="m36.03516-22.535156.000004 9h10l-.000004-9z" fill="none" stroke="url(#o)"/></g><g stroke-opacity=".745098" transform="matrix(0 -1 -1 0 18.5 81.500004)"><path d="m52-6-11.964844-.035156-.035152-6.964844h12z" fill="url(#p)" stroke="#7bb339"/><path d="m41.000004-12-.000004 5h10l.000004-5z" fill="none" stroke="url(#q)"/></g></g></svg>

<?xml version="1.0" encoding="UTF-8" standalone="no"?>
<svg
   xmlns:dc="http://purl.org/dc/elements/1.1/"
   xmlns:cc="http://creativecommons.org/ns#"
   xmlns:rdf="http://www.w3.org/1999/02/22-rdf-syntax-ns#"
   xmlns:svg="http://www.w3.org/2000/svg"
   xmlns="http://www.w3.org/2000/svg"
   xmlns:xlink="http://www.w3.org/1999/xlink"
   xmlns:sodipodi="http://sodipodi.sourceforge.net/DTD/sodipodi-0.dtd"
   xmlns:inkscape="http://www.inkscape.org/namespaces/inkscape"
   height="52"
   viewBox="0 0 60 52"
   width="60"
   version="1.1"
   id="svg71"
   sodipodi:docname="barstack_52x60.svg"
   inkscape:version="0.92.3 (unknown)"
   inkscape:export-filename="/home/rizmut/Dokumen/Rizmut/Github/libreoffice-style-elementary/images_elementary/chart2/res/barstack_52x60.png"
   inkscape:export-xdpi="96"
   inkscape:export-ydpi="96">
  <metadata
     id="metadata77">
    <rdf:RDF>
      <cc:Work
         rdf:about="">
        <dc:format>image/svg+xml</dc:format>
        <dc:type
           rdf:resource="http://purl.org/dc/dcmitype/StillImage" />
        <dc:title></dc:title>
      </cc:Work>
    </rdf:RDF>
  </metadata>
  <defs
     id="defs75">
    <linearGradient
       inkscape:collect="always"
       id="linearGradient1205">
      <stop
         style="stop-color:#f6f6f6;stop-opacity:1;"
         offset="0"
         id="stop1201" />
      <stop
         id="stop2419"
         offset="0.35294119"
         style="stop-color:#fcfcfc;stop-opacity:1" />
      <stop
         style="stop-color:#ffffff;stop-opacity:0.91544116"
         offset="1"
         id="stop1203" />
    </linearGradient>
    <linearGradient
       id="h"
       gradientTransform="matrix(1.3832,0,0,1.4144,-11.892,21.511)"
       gradientUnits="userSpaceOnUse"
       x1="13.697"
       x2="13.3"
       y1="12.091"
       y2="29.436001">
      <stop
         offset="0"
         stop-color="#aff05f"
         id="stop31" />
      <stop
         offset="1"
         stop-color="#68b723"
         id="stop33" />
    </linearGradient>
    <linearGradient
       id="i"
       gradientUnits="userSpaceOnUse"
       x1="12.00126"
       x2="12.00126"
       xlink:href="#a-2"
       y1="8.1875687"
       y2="19.999826" />
    <linearGradient
       id="a-2">
      <stop
         offset="0"
         stop-color="#fff"
         id="stop2-9" />
      <stop
         offset="0.58055538"
         stop-color="#fff"
         stop-opacity=".23529"
         id="stop4-1" />
      <stop
         offset="1"
         stop-color="#fff"
         stop-opacity=".15686"
         id="stop6" />
      <stop
         offset="1"
         stop-color="#fff"
         stop-opacity=".39216"
         id="stop8" />
    </linearGradient>
    <linearGradient
       id="f-2"
       gradientUnits="userSpaceOnUse"
       x1="13.608"
       x2="13.608"
       y1="2.5455"
       y2="21.532">
      <stop
         offset="0"
         stop-color="#f7b19e"
         id="stop25" />
      <stop
         offset="1"
         stop-color="#e2866d"
         id="stop27" />
    </linearGradient>
    <linearGradient
       id="g-7"
       gradientUnits="userSpaceOnUse"
       x1="11.876287"
       x2="12.00126"
       xlink:href="#a-2"
       y1="7.3122978"
       y2="19.999826" />
    <linearGradient
       id="j"
       gradientUnits="userSpaceOnUse"
       x1="15.608"
       x2="15.608"
       y1="2.5455"
       y2="21.532">
      <stop
         offset="0"
         stop-color="#cd9ef7"
         id="stop37" />
      <stop
         offset="1"
         stop-color="#a56de2"
         id="stop39" />
    </linearGradient>
    <linearGradient
       id="k"
       gradientUnits="userSpaceOnUse"
       x1="14.00124"
       x2="14.00124"
       xlink:href="#a-2"
       y1="4.0000048"
       y2="19.999826" />
    <linearGradient
       inkscape:collect="always"
       xlink:href="#linearGradient1205"
       id="linearGradient1207"
       x1="42.5"
       y1="49.5"
       x2="42.5"
       y2="7"
       gradientUnits="userSpaceOnUse" />
    <linearGradient
       id="a-3"
       gradientUnits="userSpaceOnUse"
       x1="9.9784946"
       x2="9.9784946"
       y1="13.912886"
       y2="-5.8720589"
       gradientTransform="translate(-85.554475,-30.546764)">
      <stop
         offset="0"
         id="stop1717" />
      <stop
         offset="1"
         stop-color="#333"
         id="stop1719" />
    </linearGradient>
    <linearGradient
       id="b-6"
       gradientUnits="userSpaceOnUse"
       x1="14"
       x2="6"
       y1="8"
       y2="16">
      <stop
         offset="0"
         stop-color="#fff"
         id="stop1722" />
      <stop
         offset=".125"
         stop-color="#fff"
         stop-opacity="0"
         id="stop1724" />
      <stop
         offset="1"
         stop-color="#fff"
         stop-opacity="0"
         id="stop1726" />
    </linearGradient>
    <clipPath
       id="c-0">
      <path
         inkscape:connector-curvature="0"
         d="M 8,2.6855469 V 16.685547 l 3.132812,-3.820313 2.066407,4.986328 a 1.0001,1.0001 0 1 0 1.847656,-0.765624 L 12.935547,11.990234 17.314453,12 Z"
         id="path1729" />
    </clipPath>
    <linearGradient
       inkscape:collect="always"
       xlink:href="#j"
       id="linearGradient932"
       gradientUnits="userSpaceOnUse"
       x1="-12"
       y1="38.5"
       x2="-29.5"
       y2="38.5"
       gradientTransform="translate(56,-52)" />
    <linearGradient
       inkscape:collect="always"
       xlink:href="#f-2"
       id="linearGradient938"
       gradientUnits="userSpaceOnUse"
       x1="22.53516"
       y1="26.464844"
       x2="7.5351601"
       y2="26.464844"
       gradientTransform="translate(26.5,-45.5)" />
    <linearGradient
       inkscape:collect="always"
       xlink:href="#h"
       id="linearGradient940"
       gradientUnits="userSpaceOnUse"
       x1="23.535156"
       y1="32.152344"
       x2="8.5351562"
       y2="32.152344"
       gradientTransform="translate(30.464844,-43.652344)" />
    <linearGradient
       inkscape:collect="always"
       xlink:href="#a-2"
       id="linearGradient948"
       gradientUnits="userSpaceOnUse"
       x1="-15"
       y1="40"
       x2="-25"
       y2="40" />
    <linearGradient
       inkscape:collect="always"
       xlink:href="#a-2"
       id="linearGradient950"
       gradientUnits="userSpaceOnUse"
       x1="20.03516"
       y1="28.964844"
       x2="10.03516"
       y2="28.464844"
       gradientTransform="translate(26.5,-45.5)" />
    <linearGradient
       inkscape:collect="always"
       xlink:href="#a-2"
       id="linearGradient952"
       gradientUnits="userSpaceOnUse"
       x1="21.035156"
       y1="32.152344"
       x2="11.035156"
       y2="32.152344"
       gradientTransform="translate(30.464844,-43.652344)" />
    <linearGradient
       inkscape:collect="always"
       xlink:href="#j"
       id="linearGradient969"
       gradientUnits="userSpaceOnUse"
       gradientTransform="translate(56,-52)"
       x1="-11.5"
       y1="38.5"
       x2="-29"
       y2="38.5" />
    <linearGradient
       inkscape:collect="always"
       xlink:href="#a-2"
       id="linearGradient973"
       gradientUnits="userSpaceOnUse"
       x1="-14"
       y1="40"
       x2="-24.5"
       y2="40" />
    <linearGradient
       inkscape:collect="always"
       xlink:href="#f-2"
       id="linearGradient979"
       gradientUnits="userSpaceOnUse"
       gradientTransform="translate(26.5,-45.5)"
       x1="23.035164"
       y1="26.464844"
       x2="8.0351639"
       y2="26.464844" />
    <linearGradient
       inkscape:collect="always"
       xlink:href="#a-2"
       id="linearGradient981"
       gradientUnits="userSpaceOnUse"
       gradientTransform="translate(26.5,-45.5)"
       x1="20.535164"
       y1="27.964844"
       x2="10.035164"
       y2="27.964844" />
    <linearGradient
       inkscape:collect="always"
       xlink:href="#h"
       id="linearGradient985"
       gradientUnits="userSpaceOnUse"
       gradientTransform="translate(30.464844,-43.652344)"
       x1="26.53516"
       y1="32.152344"
       x2="6.5351601"
       y2="32.152344" />
    <linearGradient
       inkscape:collect="always"
       xlink:href="#a-2"
       id="linearGradient991"
       gradientUnits="userSpaceOnUse"
       gradientTransform="translate(30.464844,-43.652344)"
       x1="21.53516"
       y1="34.652344"
       x2="11.53516"
       y2="34.652344" />
  </defs>
  <sodipodi:namedview
     pagecolor="#ffffff"
     bordercolor="#666666"
     borderopacity="1"
     objecttolerance="10"
     gridtolerance="10"
     guidetolerance="10"
     inkscape:pageopacity="0"
     inkscape:pageshadow="2"
     inkscape:window-width="1366"
     inkscape:window-height="706"
     id="namedview73"
     showgrid="true"
     inkscape:zoom="11.313709"
     inkscape:cx="13.999378"
     inkscape:cy="24.77825"
     inkscape:window-x="0"
     inkscape:window-y="0"
     inkscape:window-maximized="1"
     inkscape:current-layer="svg71">
    <inkscape:grid
       type="xygrid"
       id="grid895"
       spacingx="0.5"
       spacingy="0.5" />
  </sodipodi:namedview>
  <linearGradient
     id="a"
     gradientUnits="userSpaceOnUse"
     x1="29.525455894189"
     x2="29.525455894189"
     y1="35.604006871864"
     y2="16.823929761292"
     gradientTransform="translate(-60)">
    <stop
       offset="0"
       stop-color="#fbaeff"
       id="stop2" />
    <stop
       offset="1"
       stop-color="#ffd7d7"
       id="stop4" />
  </linearGradient>
  <linearGradient
     id="b"
     gradientUnits="userSpaceOnUse"
     x1="30.27586192"
     x2="30.27586192"
     y1="43.34487536"
     y2="30.9310824"
     gradientTransform="translate(-60)">
    <stop
       offset="0"
       stop-color="#99c2fc"
       id="stop7" />
    <stop
       offset="1"
       stop-color="#dceafe"
       id="stop9" />
  </linearGradient>
  <linearGradient
     id="c"
     gradientUnits="userSpaceOnUse"
     x1="36.4827584"
     x2="46.56896518"
     xlink:href="#d"
     y1="23.1724618"
     y2="40.64228401192"
     gradientTransform="translate(-60)" />
  <linearGradient
     id="d">
    <stop
       offset="0"
       stop-color="#fff"
       id="stop13" />
    <stop
       offset="1"
       stop-color="#fff"
       stop-opacity="0"
       id="stop15" />
  </linearGradient>
  <linearGradient
     id="e"
     gradientUnits="userSpaceOnUse"
     x1="39.859630516151"
     x2="50.44827548"
     xlink:href="#d"
     y1="3.311739960536"
     y2="29.37935828"
     gradientTransform="translate(-60)" />
  <linearGradient
     id="f"
     gradientUnits="userSpaceOnUse"
     x1="16.31034484"
     x2="24.864886637699"
     y1="34.21645904307"
     y2="2.290471955096"
     gradientTransform="translate(-60)">
    <stop
       offset="0"
       stop-color="#b900c4"
       id="stop19" />
    <stop
       offset="1"
       stop-color="#ae4300"
       id="stop21" />
  </linearGradient>
  <linearGradient
     id="g"
     gradientUnits="userSpaceOnUse"
     x1="13.012931085"
     x2="58.283811165318"
     y1="24.72418592"
     y2="12.593890241207"
     gradientTransform="translate(-60)">
    <stop
       offset="0"
       stop-color="#0968ef"
       id="stop24" />
    <stop
       offset="1"
       stop-color="#aecffc"
       id="stop26" />
  </linearGradient>
  <rect
     y="3"
     x="3"
     height="49"
     width="57"
     id="rect2411"
     style="opacity:0.02;vector-effect:none;fill:#010101;fill-opacity:1;stroke:none;stroke-width:0.99900001;stroke-linecap:round;stroke-linejoin:round;stroke-miterlimit:4;stroke-dasharray:none;stroke-dashoffset:0;stroke-opacity:1" />
  <rect
     style="opacity:0.05;vector-effect:none;fill:#010101;fill-opacity:1;stroke:none;stroke-width:0.98952127;stroke-linecap:round;stroke-linejoin:round;stroke-miterlimit:4;stroke-dasharray:none;stroke-dashoffset:0;stroke-opacity:1"
     id="rect2417"
     width="56.5"
     height="48.5"
     x="3"
     y="3" />
  <rect
     style="opacity:0.2;vector-effect:none;fill:#010101;fill-opacity:1;stroke:none;stroke-width:0.98004192;stroke-linecap:round;stroke-linejoin:round;stroke-miterlimit:4;stroke-dasharray:none;stroke-dashoffset:0;stroke-opacity:1"
     id="rect2415"
     width="56"
     height="48"
     x="3"
     y="3" />
  <rect
     style="opacity:1;vector-effect:none;fill:url(#linearGradient1207);fill-opacity:1;stroke:#939393;stroke-width:0.99900001;stroke-linecap:round;stroke-linejoin:round;stroke-miterlimit:4;stroke-dasharray:none;stroke-dashoffset:0;stroke-opacity:1"
     id="rect1199"
     width="57"
     height="49"
     x="0.5"
     y="0.5" />
  <path
     style="fill:none;stroke:#939393;stroke-width:1px;stroke-linecap:round;stroke-linejoin:round;stroke-opacity:1"
     d="m 6.5,12.5 v 31"
     id="path897"
     inkscape:connector-curvature="0"
     sodipodi:nodetypes="cc" />
  <path
     style="fill:none;stroke:#939393;stroke-width:1px;stroke-linecap:round;stroke-linejoin:round;stroke-opacity:1"
     d="M 6.5,43.5 H 45"
     id="path901"
     inkscape:connector-curvature="0" />
  <rect
     y="1.5"
     x="1.5"
     height="47"
     width="55"
     id="rect1209"
     style="opacity:1;vector-effect:none;fill:none;fill-opacity:1;stroke:#ffffff;stroke-width:0.99900001;stroke-linecap:round;stroke-linejoin:round;stroke-miterlimit:4;stroke-dasharray:none;stroke-dashoffset:0;stroke-opacity:1" />
  <g
     id="g958"
     transform="matrix(0,-1,-1,0,50,55)">
    <g
       transform="translate(-0.535156,51.035156)"
       id="g1086">
      <g
         transform="translate(2.035156,-0.035156)"
         id="g996">
        <path
           style="fill:url(#linearGradient932);fill-opacity:1;stroke:#7239b3;stroke-width:1px;stroke-linecap:round;stroke-linejoin:round;stroke-opacity:0.74632353"
           d="m 41.964844,-9.53516 v -6.929684 L 30,-16.429684 V -9.5 Z"
           id="path910"
           inkscape:connector-curvature="0"
           sodipodi:nodetypes="ccccc" />
        <path
           sodipodi:nodetypes="ccccc"
           inkscape:connector-curvature="0"
           id="path926"
           d="M -25,36.570316 V 41.5 h 10 l -0.03516,-4.964844 z"
           style="fill:none;fill-opacity:1;stroke:url(#linearGradient948);stroke-width:1px;stroke-linecap:round;stroke-linejoin:round;stroke-opacity:0.74632353"
           transform="translate(56,-52)" />
      </g>
      <g
         transform="translate(-3.000004,-7)"
         id="g963">
        <path
           style="fill:url(#linearGradient938);fill-opacity:1;stroke:#b35039;stroke-width:1px;stroke-linecap:round;stroke-linejoin:round;stroke-opacity:0.74509804"
           d="m 47.111336,-27.035156 -12.076176,-4e-6 -4e-6,17.5 12.000004,4e-6 z"
           id="path916"
           inkscape:connector-curvature="0"
           sodipodi:nodetypes="ccccc" />
        <path
           sodipodi:nodetypes="ccccc"
           inkscape:connector-curvature="0"
           id="path928"
           d="m 36.03516,-26.035156 v 15.5 h 10 v -15.5 z"
           style="fill:none;fill-opacity:1;stroke:url(#linearGradient950);stroke-width:1px;stroke-linecap:round;stroke-linejoin:round;stroke-opacity:0.74509804" />
      </g>
      <g
         transform="translate(-7.964844,-24.535156)"
         id="g988">
        <path
           sodipodi:nodetypes="ccccc"
           inkscape:connector-curvature="0"
           id="path918"
           d="M 52,-9.5 40.035156,-9.535156 v -5.296875 L 52,-15 Z"
           style="fill:url(#linearGradient940);fill-opacity:1;stroke:#7bb339;stroke-width:1px;stroke-linecap:round;stroke-linejoin:round;stroke-opacity:0.74509804" />
        <path
           sodipodi:nodetypes="ccccc"
           inkscape:connector-curvature="0"
           id="path930"
           d="M 41.070312,-14.070312 41,-10.5 l 9.964844,0.03516 0.07032,-3.570312 z"
           style="fill:none;fill-opacity:1;stroke:url(#linearGradient952);stroke-width:1px;stroke-linecap:round;stroke-linejoin:round;stroke-opacity:0.74509804" />
      </g>
    </g>
    <g
       id="g967"
       transform="translate(-18.535156,51.035156)">
      <g
         id="g944"
         transform="translate(2.035156,-0.035156)">
        <path
           sodipodi:nodetypes="ccccc"
           inkscape:connector-curvature="0"
           id="path936"
           d="M 41.964844,-9.53516 42.000004,-14.5 30.03516,-14.46484 30,-9.5 Z"
           style="fill:url(#linearGradient969);fill-opacity:1;stroke:#7239b3;stroke-width:1px;stroke-linecap:round;stroke-linejoin:round;stroke-opacity:0.74632353" />
        <path
           transform="translate(56,-52)"
           style="fill:none;fill-opacity:1;stroke:url(#linearGradient973);stroke-width:1px;stroke-linecap:round;stroke-linejoin:round;stroke-opacity:0.74632353"
           d="M -24.96484,38.53516 -25,41.5 h 10 v -3 z"
           id="path940"
           inkscape:connector-curvature="0"
           sodipodi:nodetypes="ccccc" />
      </g>
      <g
         id="g954"
         transform="translate(-3.000008,-2)">
        <path
           sodipodi:nodetypes="ccccc"
           inkscape:connector-curvature="0"
           id="path948"
           d="m 47.111336,-23.535156 -12.076176,-4e-6 v 11 l 12.000004,4e-6 z"
           style="fill:url(#linearGradient979);fill-opacity:1;stroke:#b35039;stroke-width:1px;stroke-linecap:round;stroke-linejoin:round;stroke-opacity:0.74509804" />
        <path
           style="fill:none;fill-opacity:1;stroke:url(#linearGradient981);stroke-width:1px;stroke-linecap:round;stroke-linejoin:round;stroke-opacity:0.74509804"
           d="m 36.03516,-22.535156 4e-6,9 h 10 l -4e-6,-9 z"
           id="path950"
           inkscape:connector-curvature="0"
           sodipodi:nodetypes="ccccc" />
      </g>
      <g
         id="g965"
         transform="translate(-7.964848,-19.535156)">
        <path
           style="fill:url(#linearGradient985);fill-opacity:1;stroke:#7bb339;stroke-width:1px;stroke-linecap:round;stroke-linejoin:round;stroke-opacity:0.74509804"
           d="M 52,-6 40.035156,-6.035156 40.000004,-13 h 12 z"
           id="path957"
           inkscape:connector-curvature="0"
           sodipodi:nodetypes="ccccc" />
        <path
           style="fill:none;fill-opacity:1;stroke:url(#linearGradient991);stroke-width:1px;stroke-linecap:round;stroke-linejoin:round;stroke-opacity:0.74509804"
           d="M 41.000004,-12 41,-7 h 10 l 4e-6,-5 z"
           id="path963"
           inkscape:connector-curvature="0"
           sodipodi:nodetypes="ccccc" />
      </g>
    </g>
  </g>
</svg>
